icons/cart.svg

<svg width="48" height="48" viewBox="0 0 48 48" fill="none" xmlns="http://www.w3.org/2000/svg">
<path d="M26 0C20.4961 0 16.0565 4.37372 16.0565 9.79592V11.7551H8.19492L8.10169 12.6122L4.12429 46.898L4 48H48L47.8757 46.898L43.8983 12.6122L43.8051 11.7551H35.9435V9.79592C35.9435 4.37372 31.5039 0 26 0ZM26 1.95918C30.4396 1.95918 33.9548 5.42219 33.9548 9.79592V11.7551H18.0452V9.79592C18.0452 5.42219 21.5604 1.95918 26 1.95918ZM9.99717 13.7143H16.0565V15.949C15.4622 16.2895 15.0621 16.9094 15.0621 17.6327C15.0621 18.7156 15.9516 19.5918 17.0508 19.5918C18.1501 19.5918 19.0395 18.7156 19.0395 17.6327C19.0395 16.9094 18.6395 16.2895 18.0452 15.949V13.7143H33.9548V15.949C33.3605 16.2895 32.9605 16.9094 32.9605 17.6327C32.9605 18.7156 33.8499 19.5918 34.9492 19.5918C36.0484 19.5918 36.9379 18.7156 36.9379 17.6327C36.9379 16.9094 36.5378 16.2895 35.9435 15.949V13.7143H42.0028L45.7627 46.0408H6.23729L9.99717 13.7143Z" fill="#282828"/>
</svg>

<svg xmlns="http://www.w3.org/2000/svg" width="48" height="48" fill="none" viewBox="0 0 48 48"><path fill="#282828" d="M26 0c-5.504 0-9.943 4.374-9.943 9.796v1.96H8.195l-.093.856-3.978 34.286L4 48h44l-.124-1.102-3.978-34.286-.093-.857h-7.861v-1.96C35.944 4.375 31.504 0 26 0m0 1.96c4.44 0 7.955 3.462 7.955 7.836v1.96h-15.91v-1.96c0-4.374 3.515-7.837 7.955-7.837M9.997 13.713h6.06v2.235c-.595.34-.995.96-.995 1.684 0 1.083.89 1.959 1.989 1.959s1.989-.876 1.989-1.96c0-.723-.4-1.343-.995-1.683v-2.235h15.91v2.235c-.594.34-.994.96-.994 1.684 0 1.083.889 1.959 1.988 1.959 1.1 0 1.989-.876 1.989-1.96 0-.723-.4-1.343-.995-1.683v-2.235h6.06l3.76 32.327H6.237z"/></svg>
